docs/.gitbook/assets/icon-lock-16@light.svg

<svg width="32" height="32" viewBox="0 0 16 16" fill="none" xmlns="http://www.w3.org/2000/svg">
<rect x="0" y="0" width="16" height="16" fill="#fff"/>
<path fill-rule="evenodd" clip-rule="evenodd" d="M8 2.5C6.61929 2.5 5.5 3.61929 5.5 5H10.5C10.5 3.61929 9.38071 2.5 8 2.5ZM12 5.10352V5C12 2.79086 10.2091 1 8 1C5.79086 1 4 2.79086 4 5V5.10352C2.84575 5.42998 2 6.49122 2 7.75V12.25C2 13.7688 3.23122 15 4.75 15H11.25C12.7688 15 14 13.7688 14 12.25V7.75C14 6.49122 13.1543 5.42998 12 5.10352ZM4.75 6.5C4.05964 6.5 3.5 7.05964 3.5 7.75V12.25C3.5 12.9404 4.05964 13.5 4.75 13.5H11.25C11.9404 13.5 12.5 12.9404 12.5 12.25V7.75C12.5 7.05964 11.9404 6.5 11.25 6.5H4.75Z" fill="#000"/>
</svg>

<svg xmlns="http://www.w3.org/2000/svg" width="32" height="32" fill="none" viewBox="0 0 16 16"><path fill="#fff" d="M0 0h16v16H0z"/><path fill="#000" fill-rule="evenodd" d="M8 2.5A2.5 2.5 0 0 0 5.5 5h5A2.5 2.5 0 0 0 8 2.5m4 2.604V5a4 4 0 0 0-8 0v.104A2.75 2.75 0 0 0 2 7.75v4.5A2.75 2.75 0 0 0 4.75 15h6.5A2.75 2.75 0 0 0 14 12.25v-4.5a2.75 2.75 0 0 0-2-2.646M4.75 6.5c-.69 0-1.25.56-1.25 1.25v4.5c0 .69.56 1.25 1.25 1.25h6.5c.69 0 1.25-.56 1.25-1.25v-4.5c0-.69-.56-1.25-1.25-1.25z" clip-rule="evenodd"/></svg>
